packages/assets/application-icons/24.Stats.svg

<?xml version="1.0" encoding="UTF-8"?>
<svg width="24px" height="24px" viewBox="0 0 24 24" version="1.1" xmlns="http://www.w3.org/2000/svg" xmlns:xlink="http://www.w3.org/1999/xlink">
    <title>24.Stats</title>
    <g id="Page-1" stroke="none" stroke-width="1" fill="none" fill-rule="evenodd">
        <g id="Artboard" transform="translate(-235.000000, -203.000000)" fill="#000000">
            <g id="24.Stats" transform="translate(235.000000, 203.000000)">
                <path d="M6.47966757,8.24854095 C6.69759817,8.24854095 6.87564866,8.42659082 6.87564866,8.64452204 L6.87564866,19.553927 C6.87564866,19.7718576 6.6975988,19.9499081 6.47966757,19.9499081 L3.39598109,19.9499081 C3.17805049,19.9499081 3,19.7718582 3,19.553927 L3,8.64452204 C3,8.42659145 3.17804986,8.24854095 3.39598109,8.24854095 L6.47966757,8.24854095 Z M11.1877784,13.0662721 C11.405709,13.0662721 11.5837595,13.244322 11.5837595,13.4622532 L11.5837595,19.5539584 C11.5837595,19.771889 11.4057096,19.9499395 11.1877784,19.9499395 L8.10409192,19.9499395 C7.88616132,19.9499395 7.70811083,19.7718896 7.70811083,19.5539584 L7.70811083,13.4622532 C7.70811083,13.2443226 7.8861607,13.0662721 8.10409192,13.0662721 L11.1877784,13.0662721 Z M15.8959144,5 C16.113845,5 16.2918954,5.17804986 16.2918954,5.39598109 L16.2918954,19.553927 C16.2918954,19.7718576 16.1138456,19.9499081 15.8959144,19.9499081 L12.8122279,19.9499081 C12.5942973,19.9499081 12.4162468,19.7718582 12.4162468,19.553927 L12.4162468,5.39598109 C12.4162468,5.17805049 12.5942967,5 12.8122279,5 L15.8959144,5 Z M20.6040189,10.4919146 C20.8219495,10.4919146 21,10.6702785 21,10.8878957 L21,19.553927 C21,19.7715435 20.8216361,19.9499081 20.6040189,19.9499081 L17.5203324,19.9499081 C17.3027159,19.9499081 17.1243513,19.7718582 17.1243513,19.553927 L17.1243513,10.8878957 C17.1243513,10.6699651 17.3024012,10.4919146 17.5203324,10.4919146 L20.6040189,10.4919146 Z" id="Stats"></path>
            </g>
        </g>
    </g>
</svg>

<svg width="24" height="24" viewBox="0 0 24 24" xmlns="http://www.w3.org/2000/svg"><path d="M6.48 8.249c.218 0 .396.178.396.396v10.909a.397.397 0 0 1-.396.396H3.396A.397.397 0 0 1 3 19.554V8.644c0-.217.178-.395.396-.395H6.48Zm4.708 4.817c.218 0 .396.178.396.396v6.092a.397.397 0 0 1-.396.396H8.104a.397.397 0 0 1-.396-.396v-6.092c0-.218.178-.396.396-.396h3.084ZM15.896 5c.218 0 .396.178.396.396v14.158a.397.397 0 0 1-.396.396h-3.084a.397.397 0 0 1-.396-.396V5.396c0-.218.178-.396.396-.396h3.084Zm4.708 5.492c.218 0 .396.178.396.396v8.666a.397.397 0 0 1-.396.396H17.52a.397.397 0 0 1-.396-.396v-8.666c0-.218.178-.396.396-.396h3.084Z" fill="#000" fill-rule="evenodd"/></svg>
